icons/outline/barrier-block.svg

<!--
tags: [construction, stop, traffic, barricade, street]
version: "1.54"
unicode: "f00e"
-->
<svg
  xmlns="http://www.w3.org/2000/svg"
  width="24"
  height="24"
  viewBox="0 0 24 24"
  fill="none"
  stroke="currentColor"
  stroke-width="2"
  stroke-linecap="round"
  stroke-linejoin="round"
>
  <path d="M4 7m0 1a1 1 0 0 1 1 -1h14a1 1 0 0 1 1 1v7a1 1 0 0 1 -1 1h-14a1 1 0 0 1 -1 -1zm3 8v4m.5 -4l9 -9m-3 9l6.5 -6.5m-16 4l6.5 -6.5m6.5 9v4m-12 0h4m6 0h4m-2 -13v-2m-10 2v-2" />
</svg>

<!--
tags: [construction, stop, traffic, barricade, street]
version: "1.54"
unicode: "f00e"
-->
<svg
  xmlns="http://www.w3.org/2000/svg"
  width="24"
  height="24"
  viewBox="0 0 24 24"
  fill="none"
  stroke="currentColor"
  stroke-width="2"
  stroke-linecap="round"
  stroke-linejoin="round"
>
    <path d="M4 7m0 1a1 1 0 0 1 1 -1h14a1 1 0 0 1 1 1v7a1 1 0 0 1 -1 1h-14a1 1 0 0 1 -1 -1zM7 16v4M7.5 16l9 -9M13.5 16l6.5 -6.5M4 13.5l6.5 -6.5M17 16v4M5 20h4M15 20h4M17 7v-2M7 7v-2" />
</svg>
